X:1
T:Title
%%score ( 1 2 ) { 3 | 4 }
L:1/8
Q:1/4=85
M:6/8
K:Bb
V:1 treble nm="Grand Piano, Soprano"
V:2 treble 
V:3 bass nm="Choir Pad, Onward and Upward"
V:4 bass 
V:1
 [Fd][Ec][DB] [Ec][DB][EG] | [DF][B,D][CE] [DF]3 | [DF][EG][EA] [DB][Ec][Fd] | [Fd][Ec][EG] [Ec]3 | %4
w: By~William~Thomas~Giffe * * * * *||||
 [Fd][Ec][DB] [Ec][DB][EG] | [DF][B,D][CE] [DF]3 | [DF][DB][Ec] [Fd][Ec][DB] | [Ec][EG][EA] [DB]3 | %8
w: ||||
 F3 .F3 | G3 .G3 | [FA][FA][FA] [FA][DB][Fc] | [Fd]6 | .G3 G3 | B3 F3 | [DF][DB][Fd] [Fc]2 [EA] | %15
w: |||||||
 [DB]6 |] %16
w: |
V:2
 x6 | x6 | x6 | x6 | x6 | x6 | x6 | x6 | DDD B-[FB-][FB] | EEE B-[GB-][GB] | x6 | x6 | %12
 e-[Ge-][Ge] EEE | DDD D .D2 | x6 | x6 |] %16
V:3
 B,B,B, B,B,B, | B,F,F, B,3 | B,B,C B,F,B, | B,A,A, A,3 | B,B,B, B,B,B, | B,F,F, B,3 | %6
 B,B,B, B,F,F, | A,B,C B,3 | B,B,B,[K:treble] DDD | B,B,B, EEE | CCC C[K:bass]B,A, | B,6 | %12
 B,B,B, B,B,B, | B,B,B, B, .B,2 | B,B,B, A,2 F, | F,6 |] %16
V:4
 B,,B,,B,, B,,B,,B,, | B,,B,,B,, B,,3 | F,F,F, .F,2 F, | F,F,F, F,3 | B,,B,,B,, B,,B,,B,, | %5
 B,,B,,B,, B,,3 | B,,B,,B,, B,,C,D, | F,F,F, B,,3 | B,,B,,B,, B,,B,,B,, | E,E,E, E,E,E, | %10
 F,F,F, F,F,F, | B,,6 | E,E,E, E,E,E, | B,,B,,B,, B,, .B,,2 | F,F,F, .F,3 | B,,6 |] %16

